app/img/instagram.svg

<svg width="24" height="24" viewBox="0 0 24 24" fill="none" xmlns="http://www.w3.org/2000/svg">
<path fill-rule="evenodd" clip-rule="evenodd" d="M2 12C2 7.80863 2 5.71294 3.05041 4.26718C3.38964 3.80026 3.80026 3.38964 4.26718 3.05041C5.71294 2 7.80863 2 12 2C16.1914 2 18.2871 2 19.7328 3.05041C20.1997 3.38964 20.6104 3.80026 20.9496 4.26718C22 5.71294 22 7.80863 22 12C22 16.1914 22 18.2871 20.9496 19.7328C20.6104 20.1997 20.1997 20.6104 19.7328 20.9496C18.2871 22 16.1914 22 12 22C7.80863 22 5.71294 22 4.26718 20.9496C3.80026 20.6104 3.38964 20.1997 3.05041 19.7328C2 18.2871 2 16.1914 2 12ZM12 6.70588C9.07632 6.70588 6.70588 9.07632 6.70588 12C6.70588 14.9237 9.07632 17.2941 12 17.2941C14.9237 17.2941 17.2941 14.9237 17.2941 12C17.2941 9.07632 14.9237 6.70588 12 6.70588ZM12 15.3088C10.1762 15.3088 8.69118 13.8238 8.69118 12C8.69118 10.1749 10.1762 8.69118 12 8.69118C13.8238 8.69118 15.3088 10.1749 15.3088 12C15.3088 13.8238 13.8238 15.3088 12 15.3088ZM18.3966 6.30883C18.3966 6.69844 18.0808 7.01427 17.6912 7.01427C17.3016 7.01427 16.9857 6.69844 16.9857 6.30883C16.9857 5.91923 17.3016 5.60339 17.6912 5.60339C18.0808 5.60339 18.3966 5.91923 18.3966 6.30883Z" fill="white"/>
</svg>

<svg width="24" height="24" fill="none" xmlns="http://www.w3.org/2000/svg"><path fill-rule="evenodd" clip-rule="evenodd" d="M2 12c0-4.191 0-6.287 1.05-7.733A5.5 5.5 0 014.267 3.05C5.713 2 7.81 2 12 2s6.287 0 7.733 1.05a5.5 5.5 0 011.217 1.217C22 5.713 22 7.81 22 12s0 6.287-1.05 7.733a5.5 5.5 0 01-1.217 1.217C18.287 22 16.19 22 12 22s-6.287 0-7.733-1.05a5.5 5.5 0 01-1.217-1.217C2 18.287 2 16.19 2 12zm10-5.294a5.294 5.294 0 100 10.589 5.294 5.294 0 000-10.59zm0 8.603A3.313 3.313 0 018.691 12 3.313 3.313 0 0112 8.691 3.313 3.313 0 0115.309 12 3.313 3.313 0 0112 15.309zm6.397-9a.705.705 0 11-1.411 0 .705.705 0 011.41 0z" fill="#fff"/></svg>
